static/assets/img/icons/theme/navigation/angle-left.svg

<svg height="24" viewBox="0 0 24 24" width="24" xmlns="http://www.w3.org/2000/svg"><g fill="none" fill-rule="evenodd"><path d="m0 0h24v24h-24z" opacity="0"/><path d="m6.70710678 15.7071068c-.39052429.3905243-1.02368927.3905243-1.41421356 0s-.39052429-1.0236893 0-1.4142136l5.99999998-5.99999998c.378579-.37857894.9881654-.39182456 1.3828314-.03004736l6 5.50000004c.407119.3731924.4346219 1.0057597.0614295 1.4128787s-1.0057597.4346219-1.4128787.0614295l-5.2941997-4.8530163z" fill="#000" fill-rule="nonzero" transform="matrix(0 1 1 0 .000004 -.000004)"/></g></svg>

<svg width="24px" height="24px" viewBox="0 0 24 24" version="1.1" xmlns="http://www.w3.org/2000/svg" xmlns:xlink="http://www.w3.org/1999/xlink">
    <title>Icon For Angle-left</title>
    <g stroke="none" stroke-width="1" fill="none" fill-rule="evenodd">
        <polygon points="0 0 24 0 24 24 0 24" opacity="0"></polygon>
        <path d="M6.70710678,15.7071068 C6.31658249,16.0976311 5.68341751,16.0976311 5.29289322,15.7071068 C4.90236893,15.3165825 4.90236893,14.6834175 5.29289322,14.2928932 L11.2928932,8.29289322 C11.6714722,7.91431428 12.2810586,7.90106866 12.6757246,8.26284586 L18.6757246,13.7628459 C19.0828436,14.1360383 19.1103465,14.7686056 18.7371541,15.1757246 C18.3639617,15.5828436 17.7313944,15.6103465 17.3242754,15.2371541 L12.0300757,10.3841378 L6.70710678,15.7071068 Z" fill="#000000" fill-rule="nonzero" transform="translate(12.000003, 11.999999) scale(-1, 1) rotate(-270.000000) translate(-12.000003, -11.999999) "></path>
    </g>
</svg>
